svgs/sharp-solid/transformer-bolt.svg

<svg xmlns="http://www.w3.org/2000/svg" viewBox="0 0 384 512"><!--! Font Awesome Pro 6.6.0 by @fontawesome - https://fontawesome.com License - https://fontawesome.com/license (Commercial License) Copyright 2024 Fonticons, Inc. --><path d="M136 24l0 8 24 0 16 0 0 32-16 0-24 0L88 64 64 64 48 64l0-32 16 0 24 0 0-8L88 0l48 0 0 24zm160 0l0 8 24 0 16 0 0 32-16 0-24 0-48 0-24 0-16 0 0-32 16 0 24 0 0-8 0-24 48 0 0 24zM48 96l16 0 96 0 16 0 0 32-16 0-96 0-16 0 0-32zm160 0l16 0 96 0 16 0 0 32-16 0-96 0-16 0 0-32zM0 160l32 0 320 0 32 0 0 64-32 0 0 224 32 0 0 64-32 0L32 512 0 512l0-64 32 0 0-224L0 224l0-64zm240 48L96 352l70.5 5L144 464 288 320l-70.5-5L240 208z"/></svg>

<svg xmlns="http://www.w3.org/2000/svg" viewBox="0 0 384 512"><!--! Font Awesome Pro 6.4.2 by @fontawesome - https://fontawesome.com License - https://fontawesome.com/license (Commercial License) Copyright 2023 Fonticons, Inc. --><path d="M136 24v8h24 16V64H160 136 88 64 48V32H64 88V24 0h48V24zm160 0v8h24 16V64H320 296 248 224 208V32h16 24V24 0h48V24zM48 96H64h96 16v32H160 64 48V96zm160 0h16 96 16v32H320 224 208V96zM0 160H32 352h32v64H352V448h32v64H352 32 0V448H32V224H0V160zm240 48L96 352l70.5 5L144 464 288 320l-70.5-5L240 208z"/></svg>
